X: 714
T: Tao nan
L: 1/8
M: 2/4
K: F
F F/ E/ D C [I:setbarnb 1]| 
F GA2 | 
c c/ G/ A G | 
F E D C | 
D A G A | 
C> D F/ F3/ | 
G G/ F/ E D | 
C4 |]

@@@ Tune index: 9588
